X:1
T:Overtown, 10.10 D
T:Overtown, 10.10 D
T:George Allan
T:Public Domain Courtesy of the Cyber Hymnal™
C:George Allan
Z:Public Domain
Z:Courtesy of the Cyber Hymnal™
%%score ( 1 2 ) ( 3 4 )
L:1/8
Q:1/4=113
M:4/4
K:F
V:1 treble 
V:2 treble 
V:3 bass 
V:4 bass 
V:1
 [FA]2 | [EG]2 F2 E2 [FA]2 | [EG]6 F2 | [DF]4 [Fd]4 | [Fc]6 [FA]2 | [EB]2 [EG]2 [Fc]2 [EB]2 | %6
 [FA]6 [CF]2 | [CE]4 [=B,D]4 | C6 [Fc]2 | [Fd]2 [Fc]2 [EB]2 [FA]2 | [EB]6 [FA]2 | [FG]4 G4 | %12
 [EG]6 [FA]2 | [EB]2 [Fc]2 [Fd]2 [Be]2 | [Af]6 [FG]2 | [FA]4 [EG]4 | F6 |] %17
V:2
 x2 | x2 F2 x4 | x6 F2 | x8 | x8 | x8 | x8 | x8 | C6 x2 | x8 | x8 | x4 (D2 F2) | x8 | x8 | x8 | %15
 x8 | F6 |] %17
V:3
 [F,C]2 | [B,C]2 [A,C]2 [G,C]2 [F,C]2 | [C,C]6 [A,C]2 | B,4 [B,,B,]4 | [F,A,]6 [F,C]2 | %5
 [G,C]2 [B,C]2 [A,C]2 [G,C]2 | [F,C]6 [D,D]2 | G,4 (G,2 F,2) | [C,E,]6 [A,C]2 | %9
 B,2 [A,C]2 [G,C]2 [F,C]2 | [G,C]6 [F,C]2 | [G,=B,]4 [G,,B,]4 | [C,C]6 [F,C]2 | %13
 [G,C]2 [A,C]2 B,2 [G,C]2 | D6 [=B,D]2 | C4 (C2 B,2) | [F,A,]6 |] %17
V:4
 x2 | x8 | x8 | B,4 x4 | x8 | x8 | x8 | G,4 G,,4 | x8 | B,2 x6 | x8 | x8 | x8 | x4 B,2 x2 | D6 x2 | %15
 C4 C,4 | x6 |] %17

